X:1
T:RIG-A-JIG-RAG
T:RIG-A-JIG-RAG
T:FOX TROT
T:WILLIAM SCHROEDER
T:Copyright 1917 by M. Witmark &amp; Sons
T:Copyright 1917 by M. Witmark &amp; Sons
T:Copyright 1917 by M. Witmark &amp; Sons
C:WILLIAM SCHROEDER
Z:Copyright 1917 by M. Witmark & Sons
%%score { ( 1 4 ) | ( 2 3 ) }
L:1/8
Q:1/4=90
M:2/4
K:F
V:1 treble nm="Piano" snm="Pno."
V:4 treble 
V:2 bass 
V:3 bass 
V:1
"^Moderato"!p! !>!F/>G/A/>B/ c/[EBd]/-[EBd]/>c/ | !>!F/>G/A/>B/ c/[EBd]/-[EBd]/>c/ | %2
 [df]/>f/[c_e]/>e/ [Bd]/>d/[Ac]/>c/ | [df]/>f/[c_e]/>e/ [Bd]/>d/[Ac]/>c/ | %4
 !>!F/>G/A/>B/ c/[EBd]/-[EBd]/>c/ | !>!F/>G/A/>B/ c/[EBd]/-[EBd]/>c/ | %6
 [Bd]/>d/[Ac]/>c/ [GB]/>B/[^FA]/>A/ | [Bd] !>![Ac]2 [GB] | z A/>^G/ A/>G/A/>=G/ | %9
 F/D[A,D]/- [A,D]2 | z E/>^D/ E/>D/E/>=D/ | ^C/A,[E,A,]/- [E,A,]/>B,/=B,/>C/ | %12
 D/>^C/D/>E/ F/>G/A/>=c/ | [FGe]/[FGd][=B,D]/- [B,D]/>^C/D/>F/ | [_B,DA] !>![B,EA]2 [B,EG] | %15
 [A,F] z z3/4!f! a/<[cc']/a/4 || b2- b/>g/[db]/>g/ | a2- a/>f/[Aa]/>f/ | g[Geg][Fdf][Geg] | %19
 [Aa]/>[Bb]/[cc']- [cc']/>a/[cc']/>a/ | b2- b/>g/[Bb]/>g/ | a2- a/>f/[Aa]/>f/ | g[Geg][Fdf][Geg] | %23
 [ce]/>[Gd]/[Ec]- [Ec]/>!p!E/G/>E/ | [=B,F][B,G]/[B,F]/- [B,F]/[B,G][B,F]/ | %25
 [CE]/[EG][Ec]/- [Ec][Fd] | [Ge][Af][Ge][Fd] | [Ec]2 [_B,-E-G][B,E] | %28
 [=B,F][B,G]/[B,F]/- [B,F]/[B,G][B,F]/ | [CE]/[EG][Ec]/- [Ec][Fd] | [Ge][Af][Ge][Fd] | %31
 [Ec]2 z3/4!f! a/<[cc']/a/4 | b2- b/>g/[Bb]/>g/ | a2- a/>f/[Aa]/>f/ | g[Geg][Fdf][Geg] | %35
 [Aa]/>[Bb]/[cc']- [cc']/>!ff!c'/[_e_e']/>c'/ | _d'2- d'/>b/[_dd']/>b/ | c'2- c'/>_a/[cc']/>a/ | %38
 [Bb] (!>!f_e) (!>!_d |c) (!>!B_A) (!>!G ||!p! F/>)G/A/>B/ c/[=EB=d]/-[EBd]/>c/ | %41
 !>!F/>G/A/>B/ c/[EBd]/-[EBd]/>c/ | [df]/>f/[c_e]/>e/ [Bd]/>d/[Ac]/>c/ | %43
 [df]/>f/[c_e]/>e/ [Bd]/>d/[Ac]/>c/ | F/>G/A/>B/ c/[EBd]/-[EBd]/>c/ | %45
 !>!F/>G/A/>B/ c/[EBd]/-[EBd]/>c/ | [Bd]/>d/[Ac]/>c/ [GB]/>B/[^FA]/>A/ | [Bd] !>![Ac]2 [GB] | %48
 z A/>^G/ A/>G/A/>=G/ | F/D[A,D]/- [A,D]2 | z E/>^D/ E/>D/E/>=D/ | %51
 ^C/A,[E,A,]/- [E,A,]/>B,/=B,/>C/ | D/>^C/D/>E/ F/>G/A/>=c/ | [FGe]/[FGd][=B,D]/- [B,D]/>^C/D/>F/ | %54
 [_B,DA] !>![B,EA]2 [B,EG] | [A,F] z z .[dg] |:[K:Bb]!p!!f!"_-"{/f} [^cg]3{/f} .[dg] | %57
{/f} [eg]3 .[dg] |{/f} [^cg]{/f}[dg]{/f}[eg]{/f}[dg] | [^cfg]/[dfg][Adf]/- [Adf][Bdf] | %60
 E2- E/>F/G/>A/ | [Fd] [Ec]2 (([GB] | [FA]))[GB][Ac][Bd] | [ce][df][eg][dg] | %64
{/f} [^cg]3{/f} .[dg] |{/f} [eg]3 .[dg] |{/f} [^cg]{/f}[dg]{/f}[eg]{/f}[dg] | %67
 [^cfg]/[dfg][Adf]/- [Adf][Bdf] | _A2- A/>B/c/>d/ | [Bg] [_Af]2 (([ce] | [Bd]))[ce][df][eg] | %71
 [f_a][gb][ac']!mf![Bb] | [GBg]2 [F=Bf]2 | [Ece]2- [Ece][DGd] | %74
 [^CGB^c]/[CGBc][CGBc]/- [CGBc]/>=c/[^CGB^c] | [D^FAd]3!p!{/f} [dg] |{/f} [^cg]3{/f} .[dg] | %77
{/f} [eg]3 .[dg] |{/f} [^cg]{/f}[dg]{/f}[eg]{/f}[dg] | [^cfg]/[dfg][Adf]/- [Adf][Bdf] | %80
 [eg][eg][df][ce] | [eg]/[eg][df]/- [df][ce] | [Bd]!>!F- F/>F/[^CG]/>F/ |1 %83
 [DB] z z!f!{/f} .[dg] :|2 [DB]2- [DB] z ||[K:F]!p! !>!F/>G/A/>B/ c/[EBd]/-[EBd]/>c/ | %86
 !>!F/>G/A/>B/ c/[EBd]/-[EBd]/>c/ | [df]/>f/[c_e]/>e/ [Bd]/>d/[Ac]/>c/ | %88
 [df]/>f/[c_e]/>e/ [Bd]/>d/[Ac]/>c/ | !>!F/>G/A/>B/ c/[EBd]/-[EBd]/>c/ | %90
 !>!F/>G/A/>B/ c/[EBd]/-[EBd]/>c/ | [Bd]/>d/[Ac]/>c/ [GB]/>B/[^FA]/>A/ | [Bd] !>![Ac]2 [GB] | %93
 z A/>^G/ A/>G/A/>=G/ | F/D[A,D]/- [A,D]2 | z E/>^D/ E/>D/E/>=D/ | %96
 ^C/A,[E,A,]/- [E,A,]/>B,/=B,/>C/ | D/>^C/D/>E/ F/>G/A/>=c/ | [FGe]/[FGd][=B,D]/- [B,D]/>^C/D/>F/ | %99
 [_B,DA] !>![B,EA]2 [B,EG] | [A,F]2 !>![FAcf] z |] %101
V:2
 !arpeggio!!>![F,,C,A,]2 z [C,,C,] | !arpeggio!!>![F,,C,A,]2 z [C,,C,] | F,^F,G,A, | F,^F,G,A, | %4
 !arpeggio!!>![F,,C,A,]2 z [C,,C,] | !arpeggio!!>![F,,C,A,]2 z [C,,C,] | D,^D,E,_E, | %7
 D, !>!^D,2 E, | A,,A,E,,E, | D,,D,C,,C, | =B,,,=B,,_B,,,_B,, | A,,,A,,G,,,G,, | %12
"^cresc." [F,,,F,,][A,,,A,,][D,,D,][=C,,=C,] | [=B,,,=B,,][G,=B,]G,,[G,B,] | %14
 C, !>![C,,C,]2 [C,,C,] | [F,,C,]C, !>!C2 || G,,!>![G,CE] C,,[G,CE] | F,,[A,CF] C,,[A,CF] | %18
 G,,[B,CE] C,,[B,CE] | F,,[A,CF] ^F,,[^F,A,^D] | G,,!>![G,CE] C,,[G,CE] | F,,[A,CF] C,,[A,CF] | %22
 =B,,[G,=B,]G,,[G,B,] | C,G,C z | D,G,G,,G, | C,G,G,,[G,=B,] | C,[G,C]G,,[G,=B,] | C,G, ^C,2 | %28
 D,G,G,,G, | C,G,G,,[G,=B,] | C,[G,C]G,,[G,=B,] | C,G, !>!C2 | G,,!>![G,CE] C,,[G,CE] | %33
 F,,[A,CF] C,,[A,CF] | G,,[B,CE] C,,[B,CE] | F,,[F,A,C] [A,CF] z | B,,!>![G,B,_E] _E,,[G,B,E] | %37
 _A,,!>![_A,C_E] _E,,[A,CE] | [G,_DF] x3 | x3 (!>!B, || !arpeggio!!>![F,,C,=A,]2) z [C,,C,] | %41
 !arpeggio!!>![F,,C,A,]2 z [C,,C,] | F,^F,G,A, | F,^F,G,A, | !arpeggio!!>![F,,C,A,]2 z [C,,C,] | %45
 !arpeggio!!>![F,,C,A,]2 z [C,,C,] | D,^D,E,_E, | D, !>!^D,2 E, | A,,A,E,,E, | D,,D,C,,C, | %50
 =B,,,=B,,_B,,,_B,, | A,,,A,,G,,,G,, |"^cresc." .[F,,,F,,].[A,,,A,,].[D,,D,].[=C,,=C,] | %53
 [=B,,,=B,,][G,=B,]G,,[G,B,] | .C, !>![C,,C,]2 [C,,C,] | [F,,C,] z !>!F,2 |: %56
[K:Bb] B,,[F,B,D]F,,[F,B,D] | B,,[G,B,E]F,,[F,B,D] | B,,[F,B,D]F,,[F,B,D] | B,,[F,B,D]F,,[F,B,D] | %60
 C,[F,A,] F,,.[F,A,E] | C,[F,A,] F,,(F, | E)DCB, | A,G,F,F,, | B,,[F,B,D]F,,[F,B,D] | %65
 B,,[G,B,E]F,,[F,B,D] | B,,[F,B,D]F,,[F,B,D] | B,,[F,B,D]F,,[F,B,D] | B,,[F,B,D]F,,[_A,B,D] | %69
 B,,[F,B,D]F,,B, | _A"^cresc."GFE | DCB,[B,,B,] | E,[G,B,E]D,[G,=B,] | C,G,C[_B,,_B,] | %74
 [E,,E,]/[E,,E,][E,,E,]/- [E,,E,][E,,E,] | [D,,D,]A,,D,, z | B,,[F,B,D]F,,[F,B,D] | %77
 B,,[G,B,E]F,,[F,B,D] | B,,[F,B,D]F,,[F,B,D] | B,,[F,B,D]F,,[F,B,D] | %80
 [C,,C,][C,,C,][D,,D,][E,,E,] | [F,,F,][F,,F,][G,,G,][A,,A,] | [B,,B,]!>!F,- F,[F,,F,] |1 %83
 [B,,F,]!f!F,, !>!F,2 :|2 [B,,F,]2 !>![B,,,B,,] z ||[K:F] !arpeggio!!>![F,,C,A,]2 z [C,,C,] | %86
 !arpeggio!!>![F,,C,A,]2 z [C,,C,] | F,^F,G,A, | F,^F,G,A, | !arpeggio!!>![F,,C,A,]2 z [C,,C,] | %90
 !arpeggio!!>![F,,C,A,]2 z [C,,C,] | D,^D,E,_E, | D, !>!^D,2 E, | A,,A,E,,E, | D,,D,C,,C, | %95
 =B,,,=B,,_B,,,_B,, | A,,,A,,G,,,G,, |"^cresc." .[F,,,F,,].[A,,,A,,].[D,,D,].[=C,,=C,] | %98
 [=B,,,=B,,][G,=B,]G,,[G,B,] | C, !>![C,,C,]2 [C,,C,] | [F,,C,]2 !>![F,,C,A,] z |] %101
V:3
 x4 | x4 | B,,4 | B,,4 | x4 | x4 | G,,4 | G,,4 | x4 | x4 | x4 | x4 | x4 | x4 | x4 | x4 || x4 | x4 | %18
 x4 | x4 | x4 | x4 | x4 | x4 | x4 | x4 | x4 | x4 | x4 | x4 | x4 | x4 | x4 | x4 | x4 | x4 | x4 | %37
 x4 | x4 | x4 || x4 | x4 | B,,4 | B,,4 | x4 | x4 | G,,4 | G,,4 | x4 | x4 | x4 | x4 | x4 | x4 | x4 | %55
 x4 |:[K:Bb] x4 | x4 | x4 | x4 | x4 | x4 | x4 | x4 | x4 | x4 | x4 | x4 | x4 | x4 | x4 | x4 | x4 | %73
 x4 | x4 | x4 | x4 | x4 | x4 | x4 | x4 | x4 | x4 |1 x4 :|2 x4 ||[K:F] x4 | x4 | B,,4 | B,,4 | x4 | %90
 x4 | G,,4 | G,,4 | x4 | x4 | x4 | x4 | x4 | x4 | x4 | x4 |] %101
V:4
 x4 | x4 | x4 | x4 | x4 | x4 | x4 | x4 | z ^C3 | x4 | z ^G,3 | x4 | x4 | x4 | x4 | x4 || %16
 z !>![Beg]-[Beg] z | z !>![Acf]-[Acf] z | x4 | x4 | z !>![Beg]-[Beg] z | z !>![Acf]-[Acf] z | x4 | %23
 x4 | x4 | x4 | x4 | x4 | x4 | x4 | x4 | x4 | z !>![Beg]-[Beg] z | z !>![Acf]-[Acf] z | x4 | x4 | %36
 z !>![_dgb]-[dgb] z | z !>![c_e_a]-[cea] z | x (!>!_AG) (!>!F |_E) (!>!_D.C) x || x4 | x4 | x4 | %43
 x4 | x4 | x4 | x4 | x4 | z ^C3 | x4 | z ^G,3 | x4 | x4 | x4 | x4 | x4 |:[K:Bb] x4 | x4 | x4 | x4 | %60
 x4 | x4 | x4 | x4 | x4 | x4 | x4 | x4 | x4 | x4 | x4 | x4 | x4 | x4 | x4 | x4 | x4 | x4 | x4 | %79
 x4 | x4 | x4 | x4 |1 x4 :|2 x4 ||[K:F] x4 | x4 | x4 | x4 | x4 | x4 | x4 | x4 | z ^C3 | x4 | %95
 z ^G,3 | x4 | x4 | x4 | x4 | x4 |] %101

